lib/logo_tmp/nrk-logo-nrk-sami-radio-with-bg.svg

<svg width="132" height="24" viewBox="0 0 132 24" fill="none" xmlns="http://www.w3.org/2000/svg">
<rect width="132" height="24" fill="#114F9D"/>
<path d="M6.00427 18V6.00109H9.94146V18H6.00427ZM15.2981 7.91078L17.5623 18H13.2534L10.5498 6.00109H12.9664C13.5206 5.9939 14.0583 6.18925 14.4788 6.55039C14.8999 6.89638 15.1892 7.3767 15.2981 7.91078ZM18.1538 18V6.00109H22.091V18H18.1538ZM25.0647 10.5641C24.6405 10.5682 24.223 10.4572 23.8568 10.243C23.4955 10.0341 23.1954 9.73396 22.9865 9.3726C22.7721 9.00633 22.661 8.58876 22.6652 8.16432C22.6604 7.74246 22.7715 7.32738 22.9865 6.96443C23.1976 6.60699 23.4974 6.31009 23.8568 6.10252C24.2231 5.8885 24.6405 5.77751 25.0647 5.78138C25.4865 5.77684 25.9014 5.88793 26.2645 6.10252C26.6203 6.31191 26.9169 6.60856 27.1263 6.96443C27.3411 7.32748 27.4522 7.74249 27.4476 8.16432C27.4515 8.58873 27.3405 9.00623 27.1263 9.3726C26.9191 9.73238 26.6222 10.0323 26.2645 10.243C25.9014 10.458 25.4862 10.5691 25.0642 10.5641H25.0647ZM28.0559 18V6.00109H31.9934V18H28.0559ZM36.978 12.5582C36.9891 12.5699 37.0735 12.7079 37.2314 12.9723C37.3893 13.2367 37.5949 13.5747 37.8482 13.9863C38.1017 14.3977 38.3692 14.8343 38.6506 15.296C38.932 15.7577 39.1969 16.1944 39.4451 16.6058C39.6924 17.0172 39.974 17.4819 40.29 18H35.9641C35.6936 17.5606 35.4484 17.1635 35.2287 16.8086C35.0091 16.4537 34.7756 16.0706 34.5281 15.6594C34.2801 15.2485 34.0349 14.8485 33.7925 14.4595C33.5501 14.0704 33.3418 13.7296 33.1675 13.4371C32.9925 13.1443 32.8713 12.9471 32.8039 12.8455C32.6368 12.5934 32.5379 12.3023 32.5169 12.0005C32.5337 11.7109 32.6269 11.431 32.787 11.1891C32.8546 11.0764 32.9786 10.8764 33.1588 10.5891C33.339 10.3018 33.5503 9.96105 33.7925 9.56672C34.0347 9.17239 34.2799 8.7696 34.5281 8.35837C34.7763 7.94715 35.0098 7.56124 35.2287 7.20071C35.4488 6.84055 35.6939 6.44059 35.9641 6.00081H40.29L36.9439 11.4595C36.8404 11.6216 36.782 11.8083 36.7749 12.0005C36.786 12.2023 36.8565 12.3963 36.9774 12.5582H36.978Z" fill="white"/>
<path d="M51.7958 12.3335C51.5475 12.0805 51.2593 11.87 50.9427 11.7105C50.6109 11.5426 50.2656 11.4026 49.9105 11.2921C49.5464 11.1783 49.171 11.0816 48.7845 11.0019C48.4884 10.9338 48.2126 10.8657 47.957 10.7974C47.7222 10.7368 47.4936 10.6538 47.2746 10.5496C47.0862 10.4604 46.9111 10.3455 46.7542 10.2082C46.6065 10.0781 46.4924 9.91428 46.4215 9.73061C46.3426 9.51471 46.305 9.28591 46.3106 9.05612C46.3066 8.81827 46.3442 8.58154 46.4215 8.3566C46.4913 8.15782 46.6084 7.97904 46.7627 7.83573C46.9225 7.68963 47.1037 7.56876 47.2999 7.47729C47.5248 7.37497 47.7634 7.30597 48.0082 7.27247C48.2992 7.23121 48.5929 7.21134 48.8868 7.21301C49.1547 7.21339 49.4223 7.22754 49.6887 7.2554C49.9581 7.28354 50.2258 7.32637 50.4906 7.3837C50.7478 7.43929 51.0013 7.51054 51.2498 7.59705C51.4825 7.67717 51.708 7.777 51.9237 7.89547L52.1626 6.39373C51.92 6.26705 51.6657 6.16416 51.4034 6.0865C51.1361 6.00684 50.8659 5.93847 50.593 5.88139C50.3167 5.82425 50.0377 5.78162 49.757 5.75366C49.4726 5.72521 49.1826 5.71089 48.8868 5.7107C48.2835 5.70409 47.6817 5.7729 47.0954 5.91553C46.5961 6.03598 46.1242 6.2504 45.705 6.54734C45.3186 6.8247 45.0077 7.19423 44.8004 7.62237C44.5798 8.10372 44.4719 8.62913 44.4851 9.15853C44.4755 9.5683 44.5419 9.97631 44.681 10.3619C44.8037 10.6849 44.9927 10.9786 45.2358 11.2241C45.4763 11.4644 45.7525 11.6659 46.0547 11.8215C46.375 11.9864 46.7088 12.1236 47.0525 12.2314C47.4112 12.3452 47.778 12.4419 48.1529 12.5216C48.4604 12.5897 48.7448 12.6608 49.006 12.7349C49.2495 12.802 49.4865 12.8905 49.7143 12.9995C49.91 13.0919 50.091 13.2126 50.2515 13.3579C50.4039 13.5011 50.5234 13.6759 50.6015 13.87C50.692 14.1038 50.7355 14.3532 50.7294 14.6039C50.7339 14.8705 50.6936 15.1359 50.61 15.3891C50.5352 15.608 50.4194 15.8108 50.2688 15.9865C50.1173 16.1594 49.9314 16.2988 49.7228 16.3956C49.4871 16.5041 49.2373 16.5789 48.9807 16.6177C48.6674 16.6658 48.3507 16.6886 48.0338 16.686C47.7258 16.6852 47.4181 16.6653 47.1125 16.6263C46.7936 16.5864 46.4752 16.5324 46.1571 16.4641C45.839 16.3958 45.5289 16.3132 45.227 16.2163C44.9257 16.1202 44.6386 16.0207 44.3657 15.9179L44.5872 17.6077C44.8781 17.7164 45.1743 17.8103 45.4746 17.889C45.7472 17.9606 46.0234 18.0176 46.3021 18.0597C46.569 18.0996 46.8363 18.1308 47.104 18.1536C47.3716 18.1764 47.6418 18.1877 47.9144 18.1877C48.5251 18.1915 49.1343 18.1286 49.7314 18C50.26 17.8892 50.7633 17.6808 51.2157 17.3855C51.6377 17.1061 51.9788 16.7205 52.2049 16.2675C52.4543 15.7311 52.5742 15.1435 52.555 14.5522C52.5643 14.1116 52.4978 13.6727 52.3585 13.2547C52.2398 12.9104 52.0478 12.5963 51.7958 12.3335Z" fill="#9FDAF5"/>
<path d="M62.0068 16.9247C61.8821 16.9362 61.7565 16.9174 61.6406 16.8698C61.5248 16.8223 61.4221 16.7474 61.3414 16.6516C61.1832 16.3782 61.1174 16.061 61.1537 15.7472L61.1879 12.2309C61.1916 11.8623 61.1457 11.4948 61.0514 11.1385C60.9685 10.826 60.8298 10.5311 60.6419 10.268C60.4522 10.0107 60.2111 9.79564 59.9339 9.63646C59.6119 9.45362 59.2638 9.32122 58.9017 9.24389C58.4589 9.1482 58.0068 9.10239 57.5539 9.10734C57.1945 9.10718 56.8355 9.12998 56.479 9.17561C56.1422 9.21801 55.8087 9.2836 55.4809 9.3719C55.1769 9.4544 54.8779 9.55413 54.5852 9.6706L54.3805 11.1214C54.6648 11.019 54.9351 10.9337 55.1912 10.8654C55.4473 10.7971 55.6946 10.7402 55.9331 10.6947C56.1671 10.65 56.4035 10.6186 56.6411 10.6008C56.8741 10.5838 57.1044 10.5752 57.3321 10.5752C57.68 10.5679 58.0272 10.6081 58.3643 10.6947C58.6102 10.7562 58.8363 10.8796 59.0211 11.0531C59.1857 11.2219 59.3033 11.4308 59.3623 11.6591C59.4351 11.9406 59.4695 12.2306 59.4647 12.5213L59.4627 12.948L57.4685 13.0829C56.7864 13.102 56.1145 13.2527 55.4895 13.5266C55.0218 13.7315 54.618 14.0587 54.3208 14.4739C54.0686 14.8435 53.9347 15.281 53.9369 15.7285C53.9337 16.1483 54.0364 16.5622 54.2355 16.9318C54.4442 17.3115 54.7582 17.6227 55.1397 17.8279C55.6051 18.0701 56.1253 18.1877 56.6496 18.1693C57.1409 18.1806 57.6299 18.0995 58.0913 17.9303C58.4902 17.7743 58.8552 17.5424 59.1661 17.2476C59.2841 17.1343 59.3961 17.015 59.5017 16.89C59.535 17.0667 59.5974 17.2367 59.6865 17.3929C59.8386 17.6542 60.0724 17.8581 60.3519 17.9733C60.6608 18.0974 60.9915 18.1583 61.3243 18.1525C61.4267 18.1525 61.5262 18.1493 61.6229 18.1437C61.7179 18.1382 61.8121 18.1239 61.9044 18.101C61.9954 18.0782 62.0776 18.0583 62.1518 18.0412C62.2186 18.0263 62.2842 18.0063 62.348 17.9815L62.5357 16.8379C62.4415 16.8703 62.3444 16.8933 62.2456 16.9065C62.1664 16.917 62.0867 16.9226 62.0068 16.9233M59.1661 16.1552C58.9812 16.3015 58.781 16.4274 58.569 16.5307C58.3579 16.6334 58.1343 16.708 57.9039 16.7529C57.6648 16.7988 57.4219 16.8216 57.1785 16.8209C56.9005 16.8288 56.624 16.7764 56.3681 16.6672C56.16 16.5769 55.9844 16.4252 55.8648 16.2323C55.7467 16.0276 55.6876 15.7941 55.6942 15.5578C55.6777 15.2732 55.7557 14.9912 55.916 14.7556C56.1017 14.5387 56.3534 14.3888 56.6326 14.3289C57.0685 14.2263 57.5159 14.1805 57.9636 14.1926H59.4573L59.4496 15.8864C59.3628 15.984 59.2676 16.0739 59.1653 16.1552" fill="#9FDAF5"/>
<path d="M60.2493 5.04504H58.4067L56.9565 8.1003H58.2872L60.2493 5.04504Z" fill="#9FDAF5"/>
<path d="M75.9448 9.46577C75.4797 9.21304 74.9554 9.08929 74.4264 9.10733C73.9672 9.1061 73.5113 9.18405 73.0786 9.33776C72.6392 9.49526 72.2253 9.71668 71.8505 9.99489C71.6377 10.1523 71.4354 10.3233 71.2448 10.5069C71.07 10.0796 70.7616 9.72037 70.3659 9.48284C69.895 9.22885 69.365 9.10511 68.8304 9.1244C68.3742 9.1246 67.9214 9.20252 67.4914 9.35482C67.0498 9.51014 66.6331 9.72861 66.2542 10.0034C66.1316 10.0919 66.0127 10.1878 65.8959 10.2879V9.1244L64.1556 9.38043V18H65.8959V11.5077C66.1009 11.3734 66.3146 11.2529 66.5357 11.147C66.8063 11.0191 67.0893 10.919 67.3802 10.8483C67.6483 10.782 67.9233 10.7477 68.1994 10.7459C68.4528 10.7383 68.7051 10.7818 68.9413 10.8739C69.1368 10.9568 69.3096 11.0856 69.4449 11.2494C69.5929 11.4397 69.695 11.6617 69.7431 11.898C69.8098 12.2035 69.8414 12.5156 69.8373 12.8283V18H71.5775V12.4698C71.5785 12.1433 71.5565 11.8172 71.5115 11.4938C71.7087 11.3641 71.913 11.2454 72.1234 11.1385C72.3894 11.0045 72.6698 10.9014 72.9592 10.8312C73.2328 10.7643 73.5134 10.7299 73.7951 10.7288C74.0458 10.7228 74.2952 10.7663 74.5291 10.8568C74.7279 10.938 74.9038 11.067 75.0409 11.2324C75.1892 11.4225 75.2914 11.6446 75.3395 11.881C75.406 12.1865 75.4375 12.4985 75.4333 12.8112V18H77.1735V12.4527C77.1955 11.8072 77.0911 11.1636 76.8664 10.5581C76.6895 10.1015 76.365 9.71711 75.9448 9.46577Z" fill="#9FDAF5"/>
<path d="M79.7503 18.0003H81.4905V9.12469L79.7503 9.38071V18.0003Z" fill="#9FDAF5"/>
<path d="M81.2423 5.54856C81.0653 5.44032 80.8614 5.38413 80.654 5.38641C80.4439 5.3848 80.2373 5.44088 80.0569 5.54856C79.879 5.65274 79.7296 5.79934 79.6221 5.97528C79.5137 6.15237 79.4574 6.35648 79.4597 6.56414C79.4594 6.7725 79.5146 6.97718 79.6195 7.15716C79.7245 7.33714 79.8754 7.48593 80.0569 7.58824C80.2391 7.69071 80.445 7.74367 80.654 7.74186C80.8603 7.74432 81.0635 7.69126 81.2423 7.58824C81.4179 7.48666 81.5625 7.33914 81.6606 7.16153C81.763 6.9792 81.8159 6.77326 81.8141 6.56414C81.8165 6.35765 81.7635 6.15431 81.6606 5.97528C81.5591 5.80021 81.4153 5.65347 81.2423 5.54856Z" fill="#9FDAF5"/>
<path d="M91.7431 9.23535C91.424 9.32091 91.1193 9.4532 90.8389 9.62793C90.5478 9.80965 90.2787 10.0244 90.037 10.268C89.9966 10.3084 89.9577 10.3533 89.9176 10.3957V9.12441L88.1773 9.38044V18H89.9176V11.5515C90.0498 11.4605 90.1832 11.3752 90.3185 11.3006C90.4893 11.2066 90.666 11.1239 90.8477 11.0531C91.0238 10.9849 91.2028 10.9251 91.3848 10.8739C91.5721 10.8218 91.7632 10.7847 91.9564 10.763C92.1631 10.7403 92.3714 10.7346 92.5791 10.7459L92.7838 9.14148C92.4341 9.11634 92.0827 9.14805 91.7431 9.23535Z" fill="#9FDAF5"/>
<path d="M101.536 16.9247C101.412 16.9362 101.286 16.9174 101.17 16.8698C101.054 16.8223 100.952 16.7474 100.871 16.6516C100.713 16.3782 100.647 16.061 100.683 15.7472L100.718 12.2309C100.721 11.8623 100.675 11.4948 100.581 11.1385C100.498 10.826 100.359 10.5311 100.172 10.268C99.9819 10.0107 99.7407 9.79564 99.4636 9.63646C99.1416 9.45362 98.7935 9.32122 98.4314 9.24389C97.9886 9.1482 97.5365 9.10239 97.0835 9.10734C96.7242 9.10718 96.3652 9.12998 96.0087 9.17561C95.6719 9.21801 95.3384 9.2836 95.0106 9.3719C94.7066 9.4544 94.4076 9.55413 94.1149 9.6706L93.9102 11.1214C94.1945 11.019 94.4648 10.9337 94.7209 10.8654C94.977 10.7971 95.2243 10.7402 95.4627 10.6947C95.6968 10.65 95.9332 10.6186 96.1708 10.6008C96.4037 10.5838 96.6341 10.5752 96.8617 10.5752C97.2096 10.5679 97.5569 10.6081 97.8939 10.6947C98.1399 10.7562 98.366 10.8796 98.5508 11.0531C98.7154 11.2219 98.833 11.4308 98.892 11.6591C98.9648 11.9406 98.9992 12.2306 98.9944 12.5213L98.9924 12.948L96.9982 13.0829C96.3161 13.102 95.6441 13.2527 95.0191 13.5266C94.5515 13.7315 94.1477 14.0587 93.8505 14.4739C93.5983 14.8435 93.4644 15.281 93.4666 15.7285C93.4634 16.1483 93.5661 16.5622 93.7652 16.9318C93.9739 17.3115 94.2879 17.6227 94.6694 17.8279C95.1348 18.0701 95.655 18.1877 96.1793 18.1693C96.6706 18.1806 97.1596 18.0995 97.621 17.9303C98.0199 17.7743 98.3849 17.5424 98.6958 17.2476C98.8138 17.1343 98.9258 17.015 99.0313 16.89C99.0646 17.0667 99.1271 17.2367 99.2162 17.3929C99.3683 17.6542 99.6021 17.8581 99.8816 17.9733C100.19 18.0974 100.521 18.1583 100.854 18.1525C100.956 18.1525 101.056 18.1493 101.153 18.1437C101.248 18.1382 101.342 18.1239 101.434 18.101C101.525 18.0782 101.607 18.0583 101.681 18.0412C101.748 18.0263 101.814 18.0063 101.878 17.9815L102.065 16.8379C101.971 16.8703 101.874 16.8933 101.775 16.9065C101.696 16.917 101.616 16.9226 101.536 16.9233M98.6958 16.1552C98.5109 16.3015 98.3107 16.4274 98.0987 16.5307C97.8876 16.6334 97.664 16.708 97.4336 16.7529C97.1945 16.7988 96.9516 16.8216 96.7082 16.8209C96.4301 16.8288 96.1537 16.7764 95.8978 16.6672C95.6897 16.5769 95.5141 16.4252 95.3945 16.2323C95.2763 16.0276 95.2173 15.7941 95.2239 15.5578C95.2074 15.2732 95.2854 14.9912 95.4457 14.7556C95.6314 14.5387 95.8831 14.3888 96.1622 14.3289C96.5982 14.2263 97.0456 14.1805 97.4933 14.1926H98.987L98.9793 15.8864C98.8924 15.984 98.7973 16.0739 98.695 16.1552" fill="#9FDAF5"/>
<path d="M109.607 9.52181C109.59 9.51498 109.574 9.50673 109.556 9.50019C109.237 9.37981 108.909 9.28553 108.575 9.21828C108.185 9.14147 107.787 9.1044 107.389 9.10761C106.631 9.10178 105.886 9.30294 105.234 9.68941C104.581 10.0759 104.047 10.6331 103.687 11.3009C103.267 12.1025 103.062 12.999 103.09 13.9036C103.071 14.6846 103.225 15.4601 103.542 16.174C103.819 16.7834 104.27 17.2971 104.839 17.6501C105.451 18.0102 106.151 18.1906 106.861 18.1707C107.296 18.1732 107.729 18.1157 108.149 18C108.567 17.8798 108.966 17.7017 109.335 17.4709C109.462 17.3918 109.59 17.3036 109.718 17.2109L109.932 18H111.348V5.13038L109.608 5.36934L109.607 9.52181ZM108.694 16.5409C108.305 16.6941 107.893 16.7778 107.475 16.7884C106.987 16.8026 106.504 16.6877 106.076 16.4553C105.676 16.2195 105.365 15.8599 105.188 15.4312C104.967 14.8813 104.862 14.2913 104.881 13.6987C104.861 13.0917 104.978 12.4878 105.223 11.9319C105.431 11.4808 105.773 11.1053 106.204 10.8568C106.671 10.6019 107.198 10.4752 107.731 10.4896C108.005 10.489 108.278 10.509 108.549 10.5493C108.818 10.591 109.084 10.6539 109.343 10.7374C109.426 10.7638 109.518 10.7991 109.607 10.8315V16.0923C109.317 16.2691 109.012 16.4193 108.694 16.5409Z" fill="#9FDAF5"/>
<path d="M115.501 5.54856C115.324 5.44032 115.12 5.38413 114.912 5.38641C114.702 5.3848 114.496 5.44088 114.315 5.54856C114.137 5.65273 113.988 5.79933 113.88 5.97528C113.772 6.15237 113.716 6.35648 113.718 6.56414C113.718 6.7725 113.773 6.97718 113.878 7.15716C113.983 7.33714 114.134 7.48593 114.315 7.58824C114.497 7.69071 114.703 7.74367 114.912 7.74186C115.119 7.74432 115.322 7.69126 115.501 7.58824C115.676 7.48666 115.821 7.33914 115.919 7.16153C116.021 6.9792 116.074 6.77326 116.073 6.56414C116.075 6.35765 116.022 6.15431 115.919 5.97528C115.817 5.80021 115.674 5.65347 115.501 5.54856Z" fill="#9FDAF5"/>
<path d="M114.008 18.0003H115.748V9.12469L114.008 9.38071V18.0003Z" fill="#9FDAF5"/>
<path d="M126.121 11.1982C125.781 10.5455 125.256 10.0081 124.611 9.65352C123.891 9.2915 123.095 9.10439 122.289 9.10736C121.483 9.11033 120.688 9.30328 119.971 9.67059C119.312 10.0397 118.773 10.5908 118.418 11.258C118.033 12.0065 117.842 12.84 117.864 13.6817C117.842 14.5167 118.02 15.3449 118.384 16.0969C118.71 16.7532 119.232 17.2927 119.877 17.6416C120.571 18.0055 121.346 18.1875 122.129 18.1707C122.949 18.187 123.759 17.9931 124.483 17.6074C125.159 17.2385 125.713 16.6811 126.079 16.003C126.475 15.2455 126.671 14.3997 126.65 13.5451C126.669 12.7312 126.488 11.9251 126.121 11.1982ZM124.509 15.3715C124.317 15.8151 123.992 16.1881 123.579 16.4382C123.164 16.6759 122.692 16.7968 122.214 16.7881C121.745 16.7998 121.283 16.6753 120.883 16.4297C120.488 16.1668 120.179 15.7926 119.997 15.3544C119.764 14.7922 119.654 14.1872 119.673 13.5793C119.653 12.9877 119.764 12.399 119.998 11.8554C120.189 11.428 120.508 11.0702 120.91 10.8312C121.341 10.5941 121.827 10.4763 122.318 10.4899C122.701 10.4804 123.083 10.5531 123.436 10.7032C123.745 10.8428 124.014 11.0569 124.22 11.3262C124.44 11.619 124.6 11.9526 124.689 12.3077C124.796 12.723 124.848 13.1505 124.843 13.5793C124.863 14.1937 124.749 14.8052 124.51 15.3715" fill="#9FDAF5"/>
</svg>

<svg xmlns="http://www.w3.org/2000/svg" viewBox="0 0 132 24"><path fill="#114F9D" d="M0 0h132v24H0z"/><path fill="#fff" d="M6.004 18V6.001h3.937V18H6.004Zm9.294-10.09L17.562 18h-4.309L10.55 6.001h2.416a2.276 2.276 0 0 1 1.513.55c.42.345.71.826.82 1.36ZM18.154 18V6.001h3.937V18h-3.937Zm6.91-7.436a2.383 2.383 0 0 1-2.4-2.4 2.303 2.303 0 0 1 .323-1.2 2.411 2.411 0 0 1 3.278-.861c.355.209.652.506.861.861.215.363.326.778.322 1.2a2.4 2.4 0 0 1-1.183 2.079 2.302 2.302 0 0 1-1.2.321ZM28.057 18V6.001h3.937V18h-3.937Zm8.922-5.442c.011.012.096.15.253.414.158.265.364.603.617 1.014a315.936 315.936 0 0 1 1.597 2.62c.247.411.529.876.845 1.394h-4.326c-.27-.44-.516-.837-.735-1.191-.22-.355-.453-.738-.7-1.15-.249-.41-.494-.81-.737-1.2-.242-.389-.45-.73-.625-1.022-.175-.293-.296-.49-.363-.591a1.75 1.75 0 0 1-.287-.845c.017-.29.11-.57.27-.812.068-.113.192-.313.372-.6s.391-.628.633-1.022c.243-.395.488-.797.736-1.209l.7-1.157.736-1.2h4.326l-3.346 5.458a1.08 1.08 0 0 0-.17.542c.012.201.082.395.203.557h.001Z"/><path fill="#9FDAF5" d="M51.796 12.334a3.234 3.234 0 0 0-.853-.623 6.686 6.686 0 0 0-1.032-.419 11.68 11.68 0 0 0-1.127-.29 24.41 24.41 0 0 1-.827-.205 3.797 3.797 0 0 1-.682-.247 2.257 2.257 0 0 1-.52-.342 1.224 1.224 0 0 1-.334-.477 1.835 1.835 0 0 1-.11-.675 2.047 2.047 0 0 1 .11-.7c.07-.198.187-.377.342-.52a2.13 2.13 0 0 1 .537-.359c.225-.102.463-.171.708-.205.291-.04.585-.06.879-.059a7.815 7.815 0 0 1 1.604.17c.257.056.51.128.759.214.233.08.458.18.674.298l.239-1.501a4.242 4.242 0 0 0-.76-.308c-.267-.08-.537-.148-.81-.205a8.084 8.084 0 0 0-.836-.127 8.794 8.794 0 0 0-.87-.043 7.243 7.243 0 0 0-1.792.205c-.499.12-.97.334-1.39.631a2.854 2.854 0 0 0-.905 1.075 3.48 3.48 0 0 0-.315 1.537c-.01.41.057.817.196 1.203.123.323.312.617.555.862.24.24.517.442.819.598.32.164.654.302.998.41.358.113.725.21 1.1.29.307.068.592.139.853.213.243.067.48.155.708.264a2.2 2.2 0 0 1 .538.359c.152.143.271.318.35.512.09.234.134.483.127.734.005.267-.035.532-.119.785-.075.219-.19.422-.341.598a1.649 1.649 0 0 1-.546.409 2.762 2.762 0 0 1-.742.222 5.92 5.92 0 0 1-.947.068 7.43 7.43 0 0 1-.922-.06c-.318-.04-.637-.094-.955-.162a9.715 9.715 0 0 1-.93-.248 17.718 17.718 0 0 1-.861-.298l.221 1.69c.291.108.587.202.888.281.272.072.548.129.827.17.267.04.534.072.802.095.268.022.538.034.81.034.611.004 1.22-.06 1.817-.188a4.347 4.347 0 0 0 1.485-.614c.422-.28.763-.665.989-1.119.25-.536.37-1.123.35-1.715.01-.44-.057-.88-.197-1.297a2.515 2.515 0 0 0-.562-.921ZM62.007 16.925a.776.776 0 0 1-.666-.273 1.469 1.469 0 0 1-.187-.905l.034-3.516a4.109 4.109 0 0 0-.137-1.092 2.68 2.68 0 0 0-.41-.871 2.307 2.307 0 0 0-.707-.632 3.623 3.623 0 0 0-1.032-.392 6.067 6.067 0 0 0-1.348-.137c-.36 0-.718.023-1.075.069-.337.042-.67.108-.998.196a8.307 8.307 0 0 0-.896.299l-.205 1.45a10.021 10.021 0 0 1 1.553-.426 6.27 6.27 0 0 1 .708-.094c.233-.017.463-.026.691-.026.348-.007.695.033 1.032.12.246.061.472.185.657.358.165.169.282.378.341.606.073.282.107.572.103.862l-.002.427-1.995.135a5.3 5.3 0 0 0-1.979.444 2.837 2.837 0 0 0-1.168.947c-.252.37-.386.807-.384 1.255-.003.42.1.833.299 1.203.208.38.522.69.904.896.465.242.985.36 1.51.341.49.012.98-.07 1.441-.239a3.32 3.32 0 0 0 1.075-.682c.118-.114.23-.233.336-.358.033.177.095.347.184.503.153.261.386.465.666.58.309.124.64.185.972.18.103 0 .202-.004.299-.01.095-.005.19-.02.281-.042l.248-.06c.067-.015.132-.035.196-.06l.188-1.143a1.504 1.504 0 0 1-.29.069c-.08.01-.16.016-.24.016m-2.84-.768a3.272 3.272 0 0 1-.597.376 2.701 2.701 0 0 1-.665.222 3.79 3.79 0 0 1-.726.068 1.925 1.925 0 0 1-.81-.154 1.114 1.114 0 0 1-.503-.435 1.278 1.278 0 0 1-.17-.674 1.293 1.293 0 0 1 .221-.802c.186-.217.437-.367.717-.427a5.197 5.197 0 0 1 1.33-.136h1.494l-.007 1.693a2.273 2.273 0 0 1-.285.27M60.25 5.045h-1.843L56.957 8.1h1.33l1.962-3.055ZM75.945 9.466a2.968 2.968 0 0 0-1.519-.359 3.994 3.994 0 0 0-1.347.23 4.75 4.75 0 0 0-1.228.658 6.114 6.114 0 0 0-.606.512 2.14 2.14 0 0 0-.88-1.024c-.47-.254-1-.378-1.535-.359-.456 0-.909.079-1.339.23a4.846 4.846 0 0 0-1.595.934V9.124l-1.74.256V18h1.74v-6.492c.205-.135.419-.255.64-.361.27-.128.553-.228.844-.299.268-.066.543-.1.82-.102.253-.008.505.036.741.128.196.083.369.212.504.375.148.19.25.413.298.649.067.306.098.618.094.93V18h1.74v-5.53a6.927 6.927 0 0 0-.066-.976 6.34 6.34 0 0 1 .612-.355c.266-.134.547-.238.836-.308.274-.067.554-.101.836-.102.25-.006.5.037.734.128.199.081.375.21.512.375.148.19.25.413.299.649.066.306.097.617.093.93V18h1.74v-5.547a4.96 4.96 0 0 0-.307-1.895 2.199 2.199 0 0 0-.921-1.092ZM79.75 18h1.74V9.125l-1.74.256V18ZM81.242 5.549a1.104 1.104 0 0 0-.588-.163 1.148 1.148 0 0 0-.597.163 1.25 1.25 0 0 0-.435.426 1.105 1.105 0 0 0-.162.59 1.174 1.174 0 0 0 1.194 1.177c.206.002.41-.05.588-.154.176-.101.32-.249.419-.426.102-.183.155-.389.153-.598.003-.206-.05-.41-.153-.589a1.207 1.207 0 0 0-.419-.426ZM91.743 9.235a3.35 3.35 0 0 0-.904.393c-.291.182-.56.396-.802.64-.04.04-.08.085-.12.128V9.124l-1.74.256V18h1.74v-6.448a4.443 4.443 0 0 1 .93-.498c.177-.07.356-.129.538-.18a3.655 3.655 0 0 1 1.194-.128l.205-1.605a3.245 3.245 0 0 0-1.04.094ZM101.536 16.925a.777.777 0 0 1-.665-.273 1.472 1.472 0 0 1-.188-.905l.035-3.516a4.15 4.15 0 0 0-.137-1.092 2.7 2.7 0 0 0-.409-.871 2.314 2.314 0 0 0-.708-.632 3.623 3.623 0 0 0-1.033-.392 6.067 6.067 0 0 0-1.347-.137c-.36 0-.719.023-1.075.069-.337.042-.67.108-.998.196a8.307 8.307 0 0 0-.896.299l-.205 1.45a10.021 10.021 0 0 1 1.553-.426c.234-.045.47-.076.708-.094.233-.017.463-.026.69-.026.349-.007.696.033 1.033.12.246.061.472.185.657.358.164.169.282.378.341.606.073.282.107.572.102.862l-.002.427-1.994.135a5.3 5.3 0 0 0-1.979.444 2.838 2.838 0 0 0-1.169.947c-.252.37-.386.807-.383 1.255-.004.42.1.833.298 1.203.209.38.523.69.904.896.466.242.986.36 1.51.341.492.012.98-.07 1.442-.239a3.32 3.32 0 0 0 1.075-.682c.118-.114.23-.233.335-.358.034.177.096.347.185.503.152.261.386.465.666.58.308.124.639.185.972.18.102 0 .202-.004.299-.01.095-.005.189-.02.281-.042l.247-.06c.067-.015.133-.035.197-.06l.187-1.143a1.496 1.496 0 0 1-.29.069c-.079.01-.159.016-.239.016m-2.84-.768a3.272 3.272 0 0 1-.597.376 2.701 2.701 0 0 1-.665.222 3.79 3.79 0 0 1-.726.068 1.925 1.925 0 0 1-.81-.154 1.114 1.114 0 0 1-.504-.435 1.277 1.277 0 0 1-.17-.674 1.293 1.293 0 0 1 .222-.802c.185-.217.437-.367.716-.427a5.198 5.198 0 0 1 1.331-.136h1.494l-.008 1.693a2.28 2.28 0 0 1-.284.27M109.607 9.522l-.051-.022a5.896 5.896 0 0 0-2.167-.393 4.163 4.163 0 0 0-3.702 2.194 5.257 5.257 0 0 0-.597 2.603 5.278 5.278 0 0 0 .452 2.27c.277.61.728 1.123 1.297 1.476.612.36 1.312.54 2.022.52.435.003.868-.054 1.288-.17a4.67 4.67 0 0 0 1.186-.53c.127-.078.255-.166.383-.26l.214.79h1.416V5.13l-1.74.24-.001 4.152Zm-.913 7.019a3.571 3.571 0 0 1-1.219.247c-.488.015-.971-.1-1.399-.333a2.132 2.132 0 0 1-.888-1.024 4.279 4.279 0 0 1-.307-1.732 4.05 4.05 0 0 1 .342-1.767 2.4 2.4 0 0 1 .981-1.075 3.017 3.017 0 0 1 1.527-.367 5.172 5.172 0 0 1 1.612.248c.083.026.175.061.264.093v5.261c-.29.177-.595.327-.913.449ZM115.501 5.549a1.105 1.105 0 0 0-.589-.163 1.15 1.15 0 0 0-.597.163c-.178.104-.327.25-.435.426a1.11 1.11 0 0 0-.162.59 1.177 1.177 0 0 0 1.194 1.177c.207.002.41-.05.589-.154.175-.101.32-.249.418-.426.102-.183.155-.389.154-.598a1.158 1.158 0 0 0-.154-.589 1.21 1.21 0 0 0-.418-.426ZM114.008 18h1.74V9.125l-1.74.256V18ZM126.121 11.198a3.727 3.727 0 0 0-1.51-1.544 5.128 5.128 0 0 0-4.64.017 3.94 3.94 0 0 0-1.553 1.587 5.013 5.013 0 0 0-.554 2.424 5.227 5.227 0 0 0 .52 2.415 3.556 3.556 0 0 0 1.493 1.545 4.636 4.636 0 0 0 2.252.529c.82.016 1.63-.178 2.354-.564a3.981 3.981 0 0 0 1.596-1.604 5.037 5.037 0 0 0 .571-2.458 4.95 4.95 0 0 0-.529-2.347Zm-1.612 4.173a2.328 2.328 0 0 1-.93 1.067 2.65 2.65 0 0 1-1.365.35 2.427 2.427 0 0 1-1.331-.358 2.397 2.397 0 0 1-.886-1.076 4.286 4.286 0 0 1-.324-1.775c-.02-.591.091-1.18.325-1.724a2.27 2.27 0 0 1 .912-1.024 2.762 2.762 0 0 1 1.408-.341 2.69 2.69 0 0 1 1.118.213c.309.14.578.354.784.623.22.293.38.627.469.982.107.415.159.842.154 1.271a4.254 4.254 0 0 1-.333 1.792"/></svg>
